X:13
T:Happy Tom
R: Strathspey
M:C
L:1/16
Z: Jason R. Fruit <jason@starlight-glimmer>
K:A
!f!A,B,CD E3G {G}[AA]4 E3D | CE3 {G}[AA]3c BB,3{CB,^A,}"_(turn in ms.)"B,3C | A,B,CD E3G {G}[AA]4 a3e | dcBA GFED CA,3!turn!"_[sic]"A,2 :|
e2 | (abc'd' !0!e'2)a2 !3!f2!4!d'2!2!e2!3!c'2 | d2b2 c2a2 {cB^A}B3cd2B2 | (abc'd' !0!e'2)a2 !3!f2!4!d'2!2!e2!3!c'2 | d2b2 e2fg {g}a2A2[AE]2e2 |
(abc'd' !0!e'2)a2 !3!f2!4!d'2!2!e2!3!c'2 | d2b2 c2a2 {cB^A}B3cd2B2 | A,B,!<(!CD E3!<)!G {G}[AA]4 a3A | dcBA GFED CA,3!turn!A,2 |]

